liquidity/ui/public/snx.svg

<svg width="66" height="66" viewBox="0 0 66 66" fill="none" xmlns="http://www.w3.org/2000/svg">
<path d="M65.7843 33C65.7843 51.2254 51.058 66 32.8922 66C14.7263 66 0 51.2254 0 33C0 14.7746 14.7263 0 32.8922 0C51.058 0 65.7843 14.7746 65.7843 33Z" fill="#0E052F"/>
<path d="M22.1634 25.0929C21.8746 24.7642 21.519 24.5995 21.0958 24.5995H12.4417C12.3648 24.5995 12.3019 24.5752 12.2546 24.5268C12.2064 24.4792 12.1824 24.4253 12.1824 24.3675V18.5652C12.1824 18.5074 12.2064 18.4543 12.2546 18.4059C12.3019 18.3575 12.3648 18.3333 12.4417 18.3333H21.5865C23.8941 18.3333 25.8849 19.2718 27.5581 21.1474L29.7795 23.8452L25.4524 29.0963L22.1634 25.0929ZM38.1455 21.1185C39.8188 19.2617 41.8189 18.3333 44.1458 18.3333H53.2619C53.3388 18.3333 53.3963 18.3528 53.4351 18.391C53.4731 18.4301 53.4925 18.4879 53.4925 18.5652V24.3675C53.4925 24.4253 53.4731 24.4792 53.4351 24.5268C53.3963 24.5752 53.3388 24.5995 53.2619 24.5995H44.6078C44.1847 24.5995 43.829 24.7642 43.5402 25.0929L37.1649 32.8099L43.5689 40.5847C43.8578 40.8947 44.2033 41.0493 44.6078 41.0493H53.2619C53.3388 41.0493 53.3963 41.0735 53.4351 41.1219C53.4731 41.1703 53.4925 41.2336 53.4925 41.3101V47.1125C53.4925 47.1703 53.4731 47.2241 53.4351 47.2718C53.3963 47.3202 53.3388 47.3444 53.2619 47.3444H44.1458C41.8189 47.3444 39.8281 46.4066 38.1743 44.5303L32.8666 38.0899L27.5581 44.5303C25.8849 46.4066 23.8848 47.3444 21.5578 47.3444H12.4417C12.3648 47.3444 12.3066 47.3202 12.2686 47.2718C12.2297 47.2234 12.2111 47.1609 12.2111 47.0828V41.2804C12.2111 41.2226 12.2297 41.1695 12.2686 41.1211C12.3066 41.0727 12.3648 41.0485 12.4417 41.0485H21.0958C21.4996 41.0485 21.8552 40.8845 22.1634 40.555L28.423 32.9544L38.1455 21.1185Z" fill="#00D1FF"/>
</svg>

<svg width="66" height="66" fill="none" viewBox="0 0 66 66" xmlns="http://www.w3.org/2000/svg">
  <path fill="#0E052F" d="M65.784 33c0 18.225-14.726 33-32.892 33S0 51.225 0 33 14.726 0 32.892 0s32.892 14.775 32.892 33"/>
  <path fill="#00D1FF" d="M22.163 25.093a1.37 1.37 0 0 0-1.067-.494h-8.654a.25.25 0 0 1-.187-.072.22.22 0 0 1-.073-.16v-5.802q0-.086.073-.16a.25.25 0 0 1 .187-.072h9.145q3.461 0 5.971 2.814l2.221 2.698-4.327 5.251zm15.982-3.974q2.511-2.786 6-2.786h9.117q.115 0 .173.058.057.06.057.174v5.802q0 .087-.057.16-.058.072-.173.072h-8.654q-.635 0-1.068.494l-6.375 7.717 6.404 7.775q.433.465 1.039.464h8.654q.115 0 .173.073a.3.3 0 0 1 .057.188v5.802q0 .087-.057.16-.058.072-.173.072h-9.116q-3.49 0-5.972-2.814l-5.307-6.44-5.309 6.44q-2.51 2.815-6 2.814h-9.116q-.116 0-.173-.072a.3.3 0 0 1-.058-.19V41.28q0-.085.058-.159.057-.073.173-.073h8.654q.606.001 1.067-.493l6.26-7.6z"/>
</svg>
